22x22/apps/airtame-application.svg

<svg xmlns="http://www.w3.org/2000/svg" width="22" height="22" version="1">
 <rect style="opacity:0.2" width="21" height="21" x="1" y=".5" rx="1.05" ry="1.05"/>
 <rect style="fill:#3c77e1" width="21" height="21" x="1" y="0" rx="1.05" ry="1.05"/>
 <path style="opacity:0.2" d="m 12.329726,14.316055 c -0.306145,-0.09732 -0.805639,-0.329873 -1.109989,-0.516795 -0.752462,-0.46214 -1.242593,-0.619277 -1.931608,-0.619277 -0.7416385,0 -1.1088675,0.107121 -1.7797455,0.519154 -0.296826,0.182302 -0.5852855,0.331457 -0.6410205,0.331457 -0.185145,0 -0.887136,-1.018048 -0.8277185,-1.200382 0.075121,-0.230529 1.032723,-0.831013 1.7237075,-1.080889 0.436442,-0.157828 0.7782675,-0.203867 1.5136,-0.203867 1.093125,0 1.639411,0.157919 2.65531,0.767593 0.345633,0.207425 0.845673,0.428996 1.111202,0.492379 0.890237,0.212503 1.896464,-0.01043 2.633982,-0.58356 0.124587,-0.09682 0.30525,-0.176034 0.401474,-0.176034 0.21306,0 0.9591,0.912218 0.919566,1.124395 -0.04464,0.239603 -1.165146,0.931925 -1.847907,1.14176 -0.810575,0.249117 -2.04435,0.250896 -2.820853,0.004 z m 0.433635,-3.920883 C 12.429046,10.319727 11.720523,10.02277 11.156216,9.721583 10.293592,9.261174 10.056188,9.17653 9.521997,9.138913 8.7556645,9.08495 8.2995105,9.200992 7.5775785,9.633558 7.2719055,9.81671 6.9638675,9.966562 6.89305,9.966562 6.742228,9.966562 6,9.062775 6,8.8791236 6,8.7208604 6.5815275,8.2621105 7.1398095,7.979963 8.565343,7.2595185 10.398931,7.3564075 11.841525,8.228407 c 0.778142,0.4703612 1.200887,0.6040056 1.910606,0.6040056 0.680669,0 1.359417,-0.2189944 1.862767,-0.6010121 0.180881,-0.13728 0.398257,-0.2496 0.483056,-0.2496 0.0848,0 0.334575,0.2377465 0.55506,0.5283255 0.469159,0.618312 0.457116,0.665803 -0.303968,1.198657 -0.945953,0.662284 -2.431973,0.946746 -3.585685,0.686389 z"/>
 <path style="fill:#f4f4f7" d="m 12.329726,13.816056 c -0.306145,-0.09732 -0.805639,-0.329873 -1.109989,-0.516795 -0.752462,-0.46214 -1.242593,-0.619277 -1.931608,-0.619277 -0.7416385,0 -1.1088675,0.107121 -1.7797455,0.519153 -0.296826,0.182302 -0.5852855,0.331458 -0.6410205,0.331458 -0.185145,0 -0.887136,-1.018049 -0.8277185,-1.200382 0.075121,-0.230529 1.032723,-0.831013 1.7237075,-1.080889 0.436442,-0.157828 0.7782675,-0.203867 1.5136,-0.203867 1.093125,0 1.639411,0.157919 2.65531,0.767593 0.345633,0.207425 0.845673,0.428996 1.111202,0.492379 0.890237,0.212503 1.896464,-0.01042 2.633982,-0.58356 0.124587,-0.09682 0.30525,-0.176034 0.401474,-0.176034 0.21306,0 0.9591,0.912218 0.919566,1.124395 -0.04464,0.239603 -1.165146,0.931925 -1.847907,1.14176 -0.810575,0.249118 -2.04435,0.250896 -2.820853,0.004 z M 12.763361,9.895172 C 12.429045,9.819728 11.720523,9.522771 11.156216,9.221584 10.293592,8.7611744 10.056188,8.6765302 9.521997,8.6389122 8.7556645,8.58495 8.2995105,8.7009924 7.5775785,9.133559 7.2719055,9.31671 6.9638675,9.466563 6.89305,9.466563 6.742228,9.466563 6,8.562775 6,8.3791235 6,8.220861 6.5815275,7.7621115 7.1398095,7.479964 8.565343,6.7595195 10.398931,6.8564085 11.841525,7.728408 c 0.778142,0.4703615 1.200887,0.604005 1.910606,0.604005 0.680669,0 1.359417,-0.218994 1.862767,-0.6010115 0.180881,-0.13728 0.398257,-0.2496 0.483056,-0.2496 0.0848,0 0.334575,0.2377465 0.55506,0.528325 0.469159,0.6183117 0.457116,0.6658027 -0.303968,1.1986575 -0.945953,0.662284 -2.431973,0.946746 -3.585685,0.686388 z"/>
 <path style="opacity:0.2;fill:#f4f4f7" d="M 2.0507812,0 C 1.4690813,0 1,0.4690813 1,1.0507812 v 0.5 C 1,0.9690813 1.4690813,0.5 2.0507812,0.5 H 20.949219 C 21.530919,0.5 22,0.9690813 22,1.5507812 v -0.5 C 22,0.4690813 21.530919,0 20.949219,0 Z"/>
</svg>

<svg xmlns="http://www.w3.org/2000/svg" width="22" height="22" version="1"><rect style="opacity:.2" width="21" height="21" x="1" y=".5" rx="1.05" ry="1.05"/><rect style="fill:#3c77e1" width="21" height="21" x="1" rx="1.05" ry="1.05"/><path style="opacity:.2" d="M12.33 14.316a6.107 6.107 0 0 1-1.11-.517c-.753-.462-1.243-.619-1.932-.619-.742 0-1.109.107-1.78.52-.296.181-.585.33-.64.33-.186 0-.888-1.017-.828-1.2.075-.23 1.032-.83 1.723-1.08.437-.159.779-.205 1.514-.205 1.093 0 1.64.158 2.655.768.346.207.846.429 1.111.492.89.213 1.897-.01 2.634-.583.125-.097.306-.176.402-.176.213 0 .959.912.92 1.124-.045.24-1.166.932-1.848 1.142-.811.25-2.045.25-2.821.004zm.433-3.92c-.334-.076-1.042-.373-1.607-.674-.862-.46-1.1-.545-1.634-.583-.766-.054-1.222.062-1.944.495-.306.183-.614.333-.685.333-.15 0-.893-.904-.893-1.088 0-.158.582-.617 1.14-.899 1.425-.72 3.259-.624 4.702.248.778.47 1.2.604 1.91.604.68 0 1.36-.219 1.863-.6.18-.138.398-.25.483-.25.085 0 .335.238.555.528.47.618.457.666-.304 1.199-.946.662-2.432.947-3.586.686z"/><path style="fill:#f4f4f7" d="M12.33 13.816a6.107 6.107 0 0 1-1.11-.517c-.753-.462-1.243-.619-1.932-.619-.742 0-1.109.107-1.78.52-.296.181-.585.33-.64.33-.186 0-.888-1.017-.828-1.2.075-.23 1.032-.83 1.723-1.08.437-.159.779-.205 1.514-.205 1.093 0 1.64.158 2.655.768.346.207.846.429 1.111.492.89.213 1.897-.01 2.634-.583.125-.097.306-.176.402-.176.213 0 .959.912.92 1.124-.045.24-1.166.932-1.848 1.142-.811.25-2.045.25-2.821.004zm.433-3.92c-.334-.076-1.042-.373-1.607-.674-.862-.46-1.1-.545-1.634-.583-.766-.054-1.222.062-1.944.495-.306.183-.614.333-.685.333-.15 0-.893-.904-.893-1.088 0-.158.582-.617 1.14-.899 1.425-.72 3.259-.624 4.702.248.778.47 1.2.604 1.91.604.68 0 1.36-.219 1.863-.6.18-.138.398-.25.483-.25.085 0 .335.238.555.528.47.618.457.666-.304 1.199-.946.662-2.432.947-3.586.686z"/><path style="opacity:.2;fill:#f4f4f7" d="M2.05 0C1.47 0 1 .47 1 1.05v.5C1 .97 1.47.5 2.05.5h18.9C21.53.5 22 .97 22 1.55v-.5C22 .47 21.53 0 20.95 0z"/></svg>
